X: 774
T: Gam Seni Terkeyleyemez
C: Kâzım Uz (Muallim)
O: Turkey
F: http://compmusic.upf.edu/node/140
N: sedaraban--sarki--agiraksak--gam_seni--muallim_kazim_uz
N: makam= sedaraban
N: form= sarki
N: usul= agiraksak = 9/4
M: 9/4
L: 1/16
K: C _7/8B _7/8e ^f ^c
Q: 1/4=66
%%MIDI tuningsystem comma53
d2cd c2d2 e2fg fed2 a2gb a2g2 abc'b agfe d4  | 
w:  ARANAĞME  | 
edcd c2de d2cd cBA2 dcBA AGGF G2AB AGFE FGAB  | 
w:   | 
=c2BA G2B2 A2G2 F_3/4EF2 A2GF F_7/8EED D3B AGFE D4  | 
w:   | 
d2cd c2d2 e2fg fed2 a2gb a2g2 abc'b agfe d4  | 
w:  ARANAĞME  | 
edcd c2de d2cd cBA2 dcBA AGGF G2AB AGFE FGAB  | 
w:   | 
=c2BA G2B2 A2G2 F_3/4EF2 A2GF F_7/8EED D3B AGFE D4  | 
w:   | 
z8 z2c4e2 d8 a4 g4 a2b2  | a2ga g2f2 z2d2 e2f2 e3d c2d2 c4 d4 f2ed  | 
w:  Gam  se ni  terk_  |  *  *  *  *  *  ey *  le mez  *  *  *  sen   | 
d8 z2d2 g2g2 {a}g3f g4 ga2g f8  | \
w:  *  ey *  le  *  terk_ *  *  i   | 
g2ag f3/2e/d2 z2a2 g2f2 fgfe efed d6de dcBc  | 
w:  *  *  *  *  *  *  gam  *  *  *  *  *  *  *  *  bi *  raz   SAZ  | 
d8 z2d4=f2 f3e d2g2 g3f e3d =c4  | \
w:  *  Gel  ka pan *  *  *  ma   | 
=cedc B3/2A/B2 z2B2 A2G2 A2BA AGFG A6AG ABAB  | 
w:  *  *  *  *  *  *  *  sey *  re  çık  *  *  *  *  *  *  gül  | 
=c3/2e/dc BAG4d2 c2d2 d3c B2e2 d3c B3A G4  | \
w:  *  *  *  *  *  *  *  ler  *  a çıl *  *  *  dı   | 
=cBAG F2ED3FG A2GF FGFE EFED D6CD EFED  | 
w:  *  *  *  *  *  *  *  gel *  *  *  *  *  *  *  *  *  *  di  *  yaz   SAZ  | 
D3g fga2 z2g2 f2g2 a8 a2b6 a2g2  | \
w:  *  *  *  *  *  Sen  *  a çıl maz  | 
a2ba g2f2 f2gf g2b2 a2g2 f2e2 e3/2f/ed d4 edef  | 
w:  *  *  *  *  *  *  san  *  *  a çıl *  *  *  maz   | 
d8 z2d4f2 e4 d2e2 (3d2c2B2 c2d2 c4  | \
w:  *  gön lü müz  *  *  ey   | 
z2f2 e2d2 d2a2 g2{a}gf fgfe efed d6de dcBc  | 
w:  verd_ *  *  *  *  *  *  *  *  *  *  *  *  *  *  i  *  naz   SAZ  | 
d8 z2d4=f2 f3e d2g2 g3f e3d =c4  | \
w:  *  Gel  ka pan *  *  *  ma   | 
=cedc B3/2A/B2 z2B2 A2G2 A2BA AGFG A6AG ABAB  | 
w:  *  *  *  *  *  *  *  sey *  re  çık  *  *  *  *  *  *  gül  | 
=c3/2e/dc BAG4d2 c2d2 d3c B2e2 d3c B3A G4  | \
w:  *  *  *  *  *  *  *  ler  *  a çıl *  *  *  dı   | 
=cBAG F2ED3FG A2GF FGFE EFED D3B AGFE D4  | 
w:  KARAR *  *  *  *  *  *  gel *  *  *  *  *  *  *  *  *  *  di  *  yaz   SAZ  | 
|


